packages/core/src/svgs/tokens/branded/RAM.svg

<svg width="24" height="24" viewBox="0 0 24 24" fill="none" xmlns="http://www.w3.org/2000/svg">
<path d="M15.3 15.53L22 8.85005L18.425 5.25L16.985 6.69L18.85 8.54998L15.175 12.2149L11.9649 9.01501L10.37 10.6049L15.305 15.53H15.3ZM8.69999 15.53L2 8.85005L5.29999 5.52L6.73999 6.96L4.85 8.85005L8.52499 12.515L9.85502 11.19L11.455 12.78L8.69499 15.53H8.69999ZM11.94 13.35L9.22998 16.05L11.94 18.75L14.645 16.05L11.94 13.35Z" fill="black"/>
</svg>

<svg xmlns="http://www.w3.org/2000/svg" width="24" height="24" fill="none" viewBox="0 0 24 24">
    <path fill="#000" d="M15.3 15.53 22 8.85l-3.575-3.6-1.44 1.44 1.865 1.86-3.675 3.665-3.21-3.2-1.595 1.59 4.935 4.925zm-6.6 0L2 8.85l3.3-3.33 1.44 1.44-1.89 1.89 3.675 3.665 1.33-1.325 1.6 1.59-2.76 2.75zm3.24-2.18-2.71 2.7 2.71 2.7 2.705-2.7z"/>
</svg>
